assets/img/services/bigdata.svg

<svg id="Layer_1" data-name="Layer 1" xmlns="http://www.w3.org/2000/svg" viewBox="0 0 512 512"><path d="M72,456a24,24,0,1,0,24,24A24,24,0,0,0,72,456Zm0,32a8,8,0,1,1,8-8A8,8,0,0,1,72,488Z"/><path d="M32.41,440.4l11.31,11.31a40,40,0,0,1,56.56,0l11.31-11.31a56,56,0,0,0-79.18,0Z"/><path d="M9.78,417.78l11.31,11.31a72.09,72.09,0,0,1,101.83,0l11.31-11.31A88.08,88.08,0,0,0,9.78,417.78Z"/><path d="M472,456H456V424H440v32H424V440H408v16H392V408H376v64h96Z"/><path d="M480,200H416a24,24,0,0,0-24,24v24H359.59a103.43,103.43,0,0,0-24.7-59.58L411.31,112H472a32,32,0,0,0,7.48-63.12,48,48,0,0,0-95,0A31.91,31.91,0,0,0,389,111.7l-65.41,65.41A103.43,103.43,0,0,0,264,152.41V120h24a24,24,0,0,0,24-24V32A24,24,0,0,0,288,8H224a24,24,0,0,0-24,24V96a24,24,0,0,0,24,24h24v32.41a103.43,103.43,0,0,0-59.58,24.7l-38.51-38.52a80.22,80.22,0,1,0-11.32,11.31l38.51,38.52A103.5,103.5,0,0,0,152.4,248H120V224a24,24,0,0,0-24-24H32A24,24,0,0,0,8,224v64a24,24,0,0,0,24,24H96a24,24,0,0,0,24-24V264h32.41a103.43,103.43,0,0,0,24.7,59.58l-54.77,54.76,11.32,11.32,54.76-54.77A103.43,103.43,0,0,0,248,359.59V392H224a24,24,0,0,0-24,24v64a24,24,0,0,0,24,24h64a24,24,0,0,0,24-24V416a24,24,0,0,0-24-24H264V359.59a103.43,103.43,0,0,0,59.58-24.7L365,376.3A24,24,0,0,0,344,400v80a24,24,0,0,0,24,24H480a24,24,0,0,0,24-24V400a24,24,0,0,0-24-24H387.31l-52.42-52.42A103.43,103.43,0,0,0,359.59,264H392v24a24,24,0,0,0,24,24h64a24,24,0,0,0,24-24V224a24,24,0,0,0-24-24ZM296,72H216V56h80ZM224,24h64a8,8,0,0,1,8,8v8H216V32A8,8,0,0,1,224,24Zm-8,72V88h80v8a8,8,0,0,1-8,8H224A8,8,0,0,1,216,96ZM32,216H96a8,8,0,0,1,8,8v8H24v-8A8,8,0,0,1,32,216Zm72,32v16H24V248Zm-8,48H32a8,8,0,0,1-8-8v-8h80v8A8,8,0,0,1,96,296ZM216,440h80v16H216Zm72,48H224a8,8,0,0,1-8-8v-8h80v8A8,8,0,0,1,288,488Zm8-72v8H216v-8a8,8,0,0,1,8-8h64A8,8,0,0,1,296,416Zm-40-72c-8.6,0-17.76-12.22-24.07-32h48.15c-6.32,19.78-15.48,32-24.08,32Zm-28.15-48a197.85,197.85,0,0,1-3.68-32h63.66a197.85,197.85,0,0,1-3.68,32Zm-59.44-32h39.77a218.39,218.39,0,0,0,3.27,32H177.72a86.94,86.94,0,0,1-9.31-32ZM256,168c8.6,0,17.76,12.22,24.07,32H231.92c6.32-19.78,15.48-32,24.08-32Zm28.15,48a197.85,197.85,0,0,1,3.68,32H224.17a197.85,197.85,0,0,1,3.68-32Zm-76,32H168.41a87.13,87.13,0,0,1,9.31-32h33.73a218.39,218.39,0,0,0-3.27,32Zm95.64,16h39.77a87.13,87.13,0,0,1-9.31,32H300.55A218.39,218.39,0,0,0,303.82,264Zm0-16a218.39,218.39,0,0,0-3.27-32h33.73a87.32,87.32,0,0,1,9.31,32ZM376,80a16,16,0,0,1,16-16h8V56a32,32,0,0,1,63.27-6.79A32.07,32.07,0,0,0,440,80h16a16,16,0,1,1,16,16H392A16,16,0,0,1,376,80ZM323.83,200h-27a110.86,110.86,0,0,0-11.13-26.73A88.36,88.36,0,0,1,323.83,200Zm-97.54-26.73A110.46,110.46,0,0,0,215.16,200h-27A88.24,88.24,0,0,1,226.29,173.27ZM88,24a64.07,64.07,0,0,1,64,64,63.42,63.42,0,0,1-8.76,32.16A64.45,64.45,0,0,0,112,93a32,32,0,1,0-48,0,64.5,64.5,0,0,0-31.25,27.21A63.88,63.88,0,0,1,88,24ZM72,72A16,16,0,1,1,88,88,16,16,0,0,1,72,72ZM43.66,134.05a47.74,47.74,0,0,1,88.68,0,63.74,63.74,0,0,1-88.68,0ZM188.17,312h27a110.86,110.86,0,0,0,11.13,26.73A88.36,88.36,0,0,1,188.17,312Zm97.54,26.73A110.46,110.46,0,0,0,296.84,312h27A88.24,88.24,0,0,1,285.71,338.73ZM488,400v80a8,8,0,0,1-8,8H368a8,8,0,0,1-8-8V400a8,8,0,0,1,8-8H480A8,8,0,0,1,488,400ZM416,216h64a8,8,0,0,1,8,8v8H408v-8A8,8,0,0,1,416,216Zm72,32v16H408V248Zm-8,48H416a8,8,0,0,1-8-8v-8h80v8A8,8,0,0,1,480,296Z"/></svg>

<?xml version="1.0" encoding="utf-8"?>
<!-- Generator: Adobe Illustrator 25.0.0, SVG Export Plug-In . SVG Version: 6.00 Build 0)  -->
<svg version="1.1" id="Layer_1" xmlns="http://www.w3.org/2000/svg" xmlns:xlink="http://www.w3.org/1999/xlink" x="0px" y="0px"
	 viewBox="0 0 512 512" style="enable-background:new 0 0 512 512;" xml:space="preserve">
<style type="text/css">
	.st0{fill:#0664A4;}
</style>
<path class="st0" d="M72,456c-13.3,0-24,10.7-24,24s10.7,24,24,24s24-10.7,24-24S85.3,456,72,456z M72,488c-4.4,0-8-3.6-8-8
	s3.6-8,8-8s8,3.6,8,8S76.4,488,72,488z"/>
<path class="st0" d="M32.4,440.4l11.3,11.3c15.6-15.6,40.9-15.6,56.6,0l11.3-11.3C89.7,418.5,54.3,418.5,32.4,440.4z"/>
<path class="st0" d="M9.8,417.8l11.3,11.3c28.1-28.1,73.7-28.1,101.8,0l11.3-11.3C99.8,383.5,44.2,383.5,9.8,417.8z"/>
<path class="st0" d="M472,456h-16v-32h-16v32h-16v-16h-16v16h-16v-48h-16v64h96V456z"/>
<path class="st0" d="M480,200h-64c-13.3,0-24,10.7-24,24v24h-32.4c-1.7-22-10.3-42.9-24.7-59.6l76.4-76.4H472c17.7,0,32-14.3,32-32
	c0-14.8-10.1-27.7-24.5-31.1c-3.8-26.2-28.2-44.4-54.4-40.6c-21,3.1-37.5,19.6-40.6,40.6c-17.1,4.1-27.7,21.3-23.6,38.4
	c3.2,13.3,14.5,23.1,28.2,24.4l-65.4,65.4c-16.7-14.4-37.6-23-59.6-24.7V120h24c13.3,0,24-10.7,24-24V32c0-13.3-10.7-24-24-24h-64
	c-13.3,0-24,10.7-24,24v64c0,13.3,10.7,24,24,24h24v32.4c-22,1.7-42.9,10.3-59.6,24.7l-38.5-38.5c28.1-34.3,23-84.8-11.3-112.9
	S53.8,2.7,25.8,37S2.7,121.8,37,149.9c29.5,24.2,72,24.2,101.6,0l38.5,38.5c-14.4,16.7-23,37.6-24.7,59.6H120v-24
	c0-13.3-10.7-24-24-24H32c-13.3,0-24,10.7-24,24v64c0,13.3,10.7,24,24,24h64c13.3,0,24-10.7,24-24v-24h32.4
	c1.7,22,10.3,42.9,24.7,59.6l-54.8,54.8l11.3,11.3l54.8-54.8c16.7,14.4,37.6,23,59.6,24.7V392h-24c-13.3,0-24,10.7-24,24v64
	c0,13.3,10.7,24,24,24h64c13.3,0,24-10.7,24-24v-64c0-13.3-10.7-24-24-24h-24v-32.4c22-1.7,42.9-10.3,59.6-24.7l41.4,41.4
	c-12,1.5-20.9,11.6-21,23.7v80c0,13.3,10.7,24,24,24h112c13.3,0,24-10.7,24-24v-80c0-13.3-10.7-24-24-24h-92.7l-52.4-52.4
	c14.4-16.7,23-37.6,24.7-59.6H392v24c0,13.3,10.7,24,24,24h64c13.3,0,24-10.7,24-24v-64C504,210.7,493.3,200,480,200z M296,72h-80
	V56h80V72z M224,24h64c4.4,0,8,3.6,8,8v8h-80v-8C216,27.6,219.6,24,224,24z M216,96v-8h80v8c0,4.4-3.6,8-8,8h-64
	C219.6,104,216,100.4,216,96z M32,216h64c4.4,0,8,3.6,8,8v8H24v-8C24,219.6,27.6,216,32,216z M104,248v16H24v-16H104z M96,296H32
	c-4.4,0-8-3.6-8-8v-8h80v8C104,292.4,100.4,296,96,296z M216,440h80v16h-80V440z M288,488h-64c-4.4,0-8-3.6-8-8v-8h80v8
	C296,484.4,292.4,488,288,488z M296,416v8h-80v-8c0-4.4,3.6-8,8-8h64C292.4,408,296,411.6,296,416z M256,344
	c-8.6,0-17.8-12.2-24.1-32h48.1C273.8,331.8,264.6,344,256,344L256,344z M227.9,296c-2.1-10.5-3.3-21.3-3.7-32h63.7
	c-0.4,10.7-1.6,21.5-3.7,32H227.9z M168.4,264h39.8c0.3,10.7,1.4,21.4,3.3,32h-33.7C172.6,286,169.4,275.2,168.4,264z M256,168
	c8.6,0,17.8,12.2,24.1,32h-48.2C238.2,180.2,247.4,168,256,168z M284.1,216c2.1,10.5,3.3,21.3,3.7,32h-63.7
	c0.4-10.7,1.6-21.5,3.7-32H284.1z M208.1,248h-39.7c1-11.2,4.2-22,9.3-32h33.7C209.6,226.6,208.5,237.3,208.1,248L208.1,248z
	 M303.8,264h39.8c-1,11.2-4.2,22-9.3,32h-33.7C302.4,285.4,303.5,274.7,303.8,264L303.8,264z M303.8,248c-0.3-10.7-1.4-21.4-3.3-32
	h33.7c5.1,10,8.3,20.8,9.3,32H303.8z M376,80c0-8.8,7.2-16,16-16h8v-8c0-17.7,14.3-32,32-32c15.1,0,28.1,10.5,31.3,25.2
	C449.5,53.1,440,65.7,440,80h16c0-8.8,7.2-16,16-16s16,7.2,16,16s-7.2,16-16,16h-80C383.2,96,376,88.8,376,80z M323.8,200h-27
	c-2.5-9.4-6.3-18.3-11.1-26.7C300.6,178.6,313.7,187.8,323.8,200z M226.3,173.3c-4.9,8.4-8.6,17.4-11.1,26.7h-27
	C198.2,187.8,211.4,178.6,226.3,173.3L226.3,173.3z M88,24c35.3,0,64,28.7,64,64c0,11.3-3,22.4-8.8,32.2
	c-7.1-12.2-18.1-21.8-31.2-27.2c11.7-13.3,10.4-33.5-2.8-45.2S75.7,37.4,64,50.7C53.3,62.8,53.3,80.9,64,93
	c-13.1,5.4-24.1,14.9-31.2,27.2c-17.9-30.4-7.7-69.6,22.8-87.4C65.4,27,76.6,24,88,24z M72,72c0-8.8,7.2-16,16-16s16,7.2,16,16
	s-7.2,16-16,16S72,80.8,72,72z M43.7,134.1c9.8-24.5,37.5-36.4,62-26.6c12.2,4.9,21.8,14.5,26.6,26.6C107.6,158,68.4,158,43.7,134.1
	z M188.2,312h27c2.5,9.4,6.3,18.3,11.1,26.7C211.4,333.4,198.3,324.2,188.2,312z M285.7,338.7c4.9-8.4,8.6-17.4,11.1-26.7h27
	C313.8,324.2,300.6,333.4,285.7,338.7z M488,400v80c0,4.4-3.6,8-8,8H368c-4.4,0-8-3.6-8-8v-80c0-4.4,3.6-8,8-8h112
	C484.4,392,488,395.6,488,400z M416,216h64c4.4,0,8,3.6,8,8v8h-80v-8C408,219.6,411.6,216,416,216z M488,248v16h-80v-16H488z
	 M480,296h-64c-4.4,0-8-3.6-8-8v-8h80v8C488,292.4,484.4,296,480,296z"/>
</svg>
